X:3
T:Hobed i Langoed
M:3/4
L:1/4
Q:100
C:Trad.
R:Waltz
K:D
D/2E/2 F/2G/2 A | A F D | A F D | E/2F/2 G/2A/2 B | B G E | B G E |
D/2E/2 F/2G/2 A | A F D | A F D | D2 E | D2 E | F E D :||: d2 d | c2 c | B2 B|
A3 | A2 B | c B A | G2 G | F2 F | E2 E | D2 E | D2 E | F E D :||

